packages/ui-icons/src/System/24/Rating_4_24.svg

<svg xmlns="http://www.w3.org/2000/svg" viewBox="0 0 32 32" style="enable-background:new 0 0 32 32" xml:space="preserve"><path d="M16 28C9.4 28 4 22.6 4 16S9.4 4 16 4s12 5.4 12 12-5.4 12-12 12zm0-2c5.5 0 10-4.5 10-10S21.5 6 16 6 6 10.5 6 16s4.5 10 10 10zm3.3-7.7 1.4 1.4C19.2 21.2 17.9 22 16 22c-.4 0-.9 0-1.3-.1.4-1.8.1-.4.5-2 .3.1.5.1.8.1 1.2 0 2.1-.5 3.3-1.7zM12.5 15c-.8 0-1.5-.7-1.5-1.5s.7-1.5 1.5-1.5 1.5.7 1.5 1.5-.7 1.5-1.5 1.5zm7 0c-.8 0-1.5-.7-1.5-1.5s.7-1.5 1.5-1.5 1.5.7 1.5 1.5-.7 1.5-1.5 1.5z"/></svg>

<?xml version="1.0" encoding="utf-8"?>
<!-- Generator: Adobe Illustrator 23.0.1, SVG Export Plug-In . SVG Version: 6.00 Build 0)  -->
<svg version="1.1" id="Layer_1" xmlns="http://www.w3.org/2000/svg" xmlns:xlink="http://www.w3.org/1999/xlink" x="0px" y="0px"
	 viewBox="0 0 32 32" style="enable-background:new 0 0 32 32;" xml:space="preserve">
<title>Source/System Icons/24/Rating_4_24</title>
<desc>Created with Sketch.</desc>
<path d="M16,28C9.4,28,4,22.6,4,16S9.4,4,16,4s12,5.4,12,12S22.6,28,16,28z M16,26c5.5,0,10-4.5,10-10S21.5,6,16,6S6,10.5,6,16
	S10.5,26,16,26z M19.3,18.3l1.4,1.4C19.2,21.2,17.9,22,16,22c-0.4,0-0.9,0-1.3-0.1c0.4-1.8,0.1-0.4,0.5-2C15.5,20,15.7,20,16,20
	C17.2,20,18.1,19.5,19.3,18.3z M12.5,15c-0.8,0-1.5-0.7-1.5-1.5s0.7-1.5,1.5-1.5s1.5,0.7,1.5,1.5S13.3,15,12.5,15z M19.5,15
	c-0.8,0-1.5-0.7-1.5-1.5s0.7-1.5,1.5-1.5s1.5,0.7,1.5,1.5S20.3,15,19.5,15z"/>
</svg>
